X:413
T:Go tell it on the Mountain
T:Negro spiritual
C:anon.
O:USA
R:Negro spiritual
Z:Transcribed by Frank Nordberg - http://www.musicaviva.com
F:http://abc.musicaviva.com/tunes/usa/go-tell-it-on-the.abc
M:C
L:1/8
Q:200
K:D
"D"F4F>E "G"D>B,|"D"A,4D4|"Em7"EE2D"A"E2D2|"D"F2A2"G"(B2"A7"A2)|
w:Go tell it on the moun- tain, o- ver the hills and ev'- ry- where*
"D"F4F>E "G"D>B,|"D"A,4D3E|"D"F2F2"A7"(E>D)E2|"D"D6||D2|
w:Go tell it on the moun- tain, that Je- sus Christ* is born. While
"D"F2A2A2B2|"D"A2F4D2|"A7"E2E2D2E2|"D"F6D2|
w:shep- herds kept their watch- ing o'er wand'- ring flocks by night, Be-
"D"F2A2A2B2|"D"A2F4D2|"E7"E2E2D2B,2|"A"(A,4"A7"G4)|]
w:hold from out of hea- ven there shone a ho- ly light.*
W:
W:  Go tell it on the mountain, over the hills and ev'rywhere
W:  Go tell it on the mountain, that Jesus Christ is born.
W:
W:While shepherds kept their watching
W:o'er wand'ring flocks by night,
W:Behold from out of heaven
W:there shone a holy light.
W:  Go tell it...
W:
W:An lo, when they had seen it,
W:they all bowed down and prayed,
W:They travelled on together
W:to where the Babe was laid.
W:  Go tell it...
W:
W:When I was a seeker,
W:I sought both night and day;
W:I asked my Lord to help me
W:and he showed me the way.
W:  Go tell it...
W:
W:He made me a watchman
W:upon the city wall,
W:And if I am a Christian,
W:I am the least of all.
W:  Go tell it...
W:
W:
W:  From Musica Viva - http://www.musicaviva.com
W:  the Internet center for free sheet music downloads.


